static/icons/add-ons.svg

<svg xmlns="http://www.w3.org/2000/svg" width="49" height="48" fill="none">
  <path stroke="#7EBBE5" stroke-linejoin="round" stroke-width="2.8125" d="M14.7012 20.2097c.1178 1.1346.8438 2.0782 1.8802 2.5546 2.1519.989 5.9298 2.5703 8.0852 2.5703s5.9333-1.5813 8.0852-2.5703c1.0364-.4764 1.7624-1.42 1.8802-2.5546.1158-1.1137.2266-2.778.2266-5.0671 0-2.2892-.1108-3.9533-.2266-5.0672-.1178-1.13449-.8438-2.0782-1.8802-2.55455-2.1519-.98893-5.9298-2.57029-8.0852-2.57029s-5.9333 1.58136-8.0852 2.57029c-1.0364.47635-1.7624 1.42006-1.8802 2.55455-.1158 1.1139-.2266 2.778-.2266 5.0672 0 2.2891.1108 3.9534.2266 5.0671Z"/>
  <path stroke="#7EBBE5" stroke-linejoin="round" stroke-width="2.8125" d="M14.4746 9.02771s8.1341 4.07679 10.192 4.07679 10.192-4.07679 10.192-4.07679"/>
  <path stroke="#7EBBE5" stroke-linecap="round" stroke-linejoin="round" stroke-width="2.8125" d="M24.6667 13.1045v12.2304"/>
  <path stroke="#7EBBE5" stroke-linejoin="round" stroke-width="2.8125" d="M4.50907 37.9241c.11793 1.1346.84389 2.0783 1.88036 2.5546 2.15187.989 5.92977 2.5703 8.08517 2.5703 2.1554 0 5.9333-1.5813 8.0852-2.5703 1.0364-.4763 1.7624-1.42 1.8802-2.5546.1158-1.1138.2266-2.7779.2266-5.0671s-.1108-3.9534-.2266-5.0671c-.1178-1.1346-.8438-2.0783-1.8802-2.5546-2.1519-.989-5.9298-2.5703-8.0852-2.5703s-5.9333 1.5813-8.08517 2.5703c-1.03647.4763-1.76243 1.42-1.88036 2.5546-.1157 1.1137-.22648 2.7779-.22648 5.0671s.11078 3.9533.22648 5.0671Z"/>
  <path stroke="#7EBBE5" stroke-linejoin="round" stroke-width="2.8125" d="M4.28259 26.7422S12.4167 30.819 14.4746 30.819s10.192-4.0768 10.192-4.0768"/>
  <path stroke="#7EBBE5" stroke-linecap="round" stroke-linejoin="round" stroke-width="2.8125" d="M14.4746 30.8191v12.2304"/>
  <path stroke="#7EBBE5" stroke-linejoin="round" stroke-width="2.8125" d="M24.8933 37.9241c.1179 1.1346.8438 2.0783 1.8803 2.5546 2.1519.989 5.9297 2.5703 8.0851 2.5703s5.9333-1.5813 8.0852-2.5703c1.0365-.4763 1.7624-1.42 1.8803-2.5546.1158-1.1138.2265-2.7779.2265-5.0671s-.1107-3.9534-.2265-5.0671c-.1179-1.1346-.8438-2.0783-1.8803-2.5546-2.1519-.989-5.9298-2.5703-8.0852-2.5703s-5.9332 1.5813-8.0851 2.5703c-1.0365.4763-1.7624 1.42-1.8803 2.5546-.1158 1.1137-.2266 2.7779-.2266 5.0671s.1108 3.9533.2266 5.0671Z"/>
  <path stroke="#7EBBE5" stroke-linejoin="round" stroke-width="2.8125" d="M24.6667 26.7422s8.1341 4.0768 10.192 4.0768 10.192-4.0768 10.192-4.0768"/>
  <path stroke="#7EBBE5" stroke-linecap="round" stroke-linejoin="round" stroke-width="2.8125" d="M34.8588 30.8191v12.2304"/>
</svg>

<svg width="49" height="48" viewBox="0 0 49 48" fill="none" xmlns="http://www.w3.org/2000/svg">
<path d="M14.7012 20.2097C14.819 21.3443 15.545 22.2879 16.5814 22.7643C18.7333 23.7533 22.5112 25.3346 24.6666 25.3346C26.822 25.3346 30.5999 23.7533 32.7518 22.7643C33.7882 22.2879 34.5142 21.3443 34.632 20.2097C34.7478 19.096 34.8586 17.4317 34.8586 15.1426C34.8586 12.8534 34.7478 11.1893 34.632 10.0754C34.5142 8.94091 33.7882 7.9972 32.7518 7.52085C30.5999 6.53192 26.822 4.95056 24.6666 4.95056C22.5112 4.95056 18.7333 6.53192 16.5814 7.52085C15.545 7.9972 14.819 8.94091 14.7012 10.0754C14.5854 11.1893 14.4746 12.8534 14.4746 15.1426C14.4746 17.4317 14.5854 19.096 14.7012 20.2097Z" stroke="#7EBBE5" stroke-width="2.8125" stroke-linejoin="round"/>
<path d="M14.4746 9.02771C14.4746 9.02771 22.6087 13.1045 24.6666 13.1045C26.7245 13.1045 34.8586 9.02771 34.8586 9.02771" stroke="#7EBBE5" stroke-width="2.8125" stroke-linejoin="round"/>
<path d="M24.6667 13.1045V25.3349" stroke="#7EBBE5" stroke-width="2.8125" stroke-linecap="round" stroke-linejoin="round"/>
<path d="M4.50907 37.9241C4.627 39.0587 5.35296 40.0024 6.38943 40.4787C8.5413 41.4677 12.3192 43.049 14.4746 43.049C16.63 43.049 20.4079 41.4677 22.5598 40.4787C23.5962 40.0024 24.3222 39.0587 24.44 37.9241C24.5558 36.8103 24.6666 35.1462 24.6666 32.857C24.6666 30.5678 24.5558 28.9036 24.44 27.7899C24.3222 26.6553 23.5962 25.7116 22.5598 25.2353C20.4079 24.2463 16.63 22.665 14.4746 22.665C12.3192 22.665 8.5413 24.2463 6.38943 25.2353C5.35296 25.7116 4.627 26.6553 4.50907 27.7899C4.39337 28.9036 4.28259 30.5678 4.28259 32.857C4.28259 35.1462 4.39337 36.8103 4.50907 37.9241Z" stroke="#7EBBE5" stroke-width="2.8125" stroke-linejoin="round"/>
<path d="M4.28259 26.7422C4.28259 26.7422 12.4167 30.819 14.4746 30.819C16.5325 30.819 24.6666 26.7422 24.6666 26.7422" stroke="#7EBBE5" stroke-width="2.8125" stroke-linejoin="round"/>
<path d="M14.4746 30.8191V43.0495" stroke="#7EBBE5" stroke-width="2.8125" stroke-linecap="round" stroke-linejoin="round"/>
<path d="M24.8933 37.9241C25.0112 39.0587 25.7371 40.0024 26.7736 40.4787C28.9255 41.4677 32.7033 43.049 34.8587 43.049C37.0141 43.049 40.792 41.4677 42.9439 40.4787C43.9804 40.0024 44.7063 39.0587 44.8242 37.9241C44.94 36.8103 45.0507 35.1462 45.0507 32.857C45.0507 30.5678 44.94 28.9036 44.8242 27.7899C44.7063 26.6553 43.9804 25.7116 42.9439 25.2353C40.792 24.2463 37.0141 22.665 34.8587 22.665C32.7033 22.665 28.9255 24.2463 26.7736 25.2353C25.7371 25.7116 25.0112 26.6553 24.8933 27.7899C24.7775 28.9036 24.6667 30.5678 24.6667 32.857C24.6667 35.1462 24.7775 36.8103 24.8933 37.9241Z" stroke="#7EBBE5" stroke-width="2.8125" stroke-linejoin="round"/>
<path d="M24.6667 26.7422C24.6667 26.7422 32.8008 30.819 34.8587 30.819C36.9166 30.819 45.0507 26.7422 45.0507 26.7422" stroke="#7EBBE5" stroke-width="2.8125" stroke-linejoin="round"/>
<path d="M34.8588 30.8191V43.0495" stroke="#7EBBE5" stroke-width="2.8125" stroke-linecap="round" stroke-linejoin="round"/>
</svg>
